public/images/poses-lg/Plank.svg

<svg width="800" height="800" fill="none" xmlns="http://www.w3.org/2000/svg"><g clip-path="url(#a)"><path d="M456.925 588.584c-2.174-15.741-2.812-30.474-2.812-30.474s26.36-4.987 43.187-12.14c16.829-7.154 43.615-20.291 67.918-27.478 24.312-7.185 42.385-1.924 73.018-.962 30.632.962 53.493-5.289 57.986-7.831l-13.285 31.414s-18.995-.478-36.46 5.549-44.24 30.025-52.543 44.308c-8.298 14.283-11.232 21.506-21.484 25.124-10.257 3.622-20.433-3.819-34.298-4.694-13.863-.871-62.087 8.078-73.066 13.066-.001-.002-3.981-5.65-8.161-35.882Z" fill="#fff" stroke="#000" stroke-width="5" stroke-miterlimit="10"/><path d="M456.925 588.584c-2.174-15.741-2.812-30.474-2.812-30.474s26.36-4.987 43.187-12.14c16.829-7.154 43.615-20.291 67.918-27.478 24.312-7.185 42.385-1.924 73.018-.962 30.632.962 53.493-5.289 57.986-7.831l-13.285 31.414s-18.995-.478-36.46 5.549-44.24 30.025-52.543 44.308c-8.298 14.283-11.232 21.506-21.484 25.124-10.257 3.622-20.433-3.819-34.298-4.694-13.863-.871-62.087 8.078-73.066 13.066-.001-.002-3.981-5.65-8.161-35.882Z" stroke="#000" stroke-width="5" stroke-miterlimit="10"/><path d="M693.089 504.679c5.332-6.567 13.361-5.948 21.398-10.627 12.772-7.43 32.655 3.86 37.802 19.55 6.796 20.716-65.194 50.113-71.05 38.87-3.47-6.663-2.581-21.631 5.336-35.372 2.544-4.418 6.514-12.421 6.514-12.421Z" fill="#fff" stroke="#000" stroke-width="5" stroke-miterlimit="10"/><path d="M693.089 504.679c5.332-6.567 13.361-5.948 21.398-10.627 12.772-7.43 32.655 3.86 37.802 19.55 6.796 20.716-65.194 50.113-71.05 38.87-3.47-6.663-2.581-21.631 5.336-35.372 2.544-4.418 6.514-12.421 6.514-12.421Z" stroke="#000" stroke-width="5" stroke-miterlimit="10"/><path d="M747.172 525.395c-12.801 4.716-39.446 4.381-41.525-13.197-2.337-19.759-10.191-8.251-13.018-5.522-2.824 2.73-5.79 13.942-7.448 12.53-1.663-1.413-2.189-29.731 15.177-39.341 17.36-9.606 28.65-8.882 38.01-1.59 9.364 7.293 18.065 26.64 15.921 38.407-2.143 11.767-7.117 8.713-7.117 8.713Z" fill="#000" stroke="#000" stroke-width="5" stroke-miterlimit="10"/><path d="M728.677 478.983c9.42-.179 30.966-7.307 16.604-28.262-11.801-17.219-2.8-18.844-5.778-36.074-2.394-13.847-22.087-17.957-39.858 4.669-16.17 20.591-1.171 26.633 13.041 36.273 14.216 9.643 15.991 23.394 15.991 23.394Z" fill="#000" stroke="#000" stroke-width="5" stroke-miterlimit="10"/><path d="M454.114 558.109c.475 14.897 5.059 56.553 10.972 66.355 0 0-60.173 28.193-98.368 37.513-38.197 9.327-132.713 35.121-174.062 42.543-41.343 7.425-106.796 21.398-113.145 32.146-6.352 10.744 1.669 41.04 6.675 45.359 5.007 4.314 9.258 6.993 6.931 9.984-2.329 2.988-21.732 9.908-34.91-25.036-13.182-34.951-18.41-34.341-9.128-45.565 9.282-11.222 37.194-15.266 95.894-45.578 58.701-30.319 128.17-41 164.553-68.093 36.385-27.106 30.472-26.338 46.739-36.1 16.266-9.764 39.882-15.525 57.295-14.364 17.411 1.163 24.22 3.128 31.702 2.104 7.483-1.024 8.852-1.268 8.852-1.268Z" fill="#fff" stroke="#000" stroke-width="5" stroke-miterlimit="10"/><path d="M454.114 558.109c.475 14.897 5.059 56.553 10.972 66.355 0 0-60.173 28.193-98.368 37.513-38.197 9.327-132.713 35.121-174.062 42.543-41.343 7.425-106.796 21.398-113.145 32.146-6.352 10.744 1.669 41.04 6.675 45.359 5.007 4.314 9.258 6.993 6.931 9.984-2.329 2.988-21.732 9.908-34.91-25.036-13.182-34.951-18.41-34.341-9.128-45.565 9.282-11.222 37.194-15.266 95.894-45.578 58.701-30.319 128.17-41 164.553-68.093 36.385-27.106 30.472-26.338 46.739-36.1 16.266-9.764 39.882-15.525 57.295-14.364 17.411 1.163 24.22 3.128 31.702 2.104 7.483-1.024 8.852-1.268 8.852-1.268Z" stroke="#000" stroke-width="5" stroke-miterlimit="10"/><path d="M575.17 571.103c-.713-19.034-5.113-48.362 19.213-48.949 24.326-.586 24.718 9.869 23.421 32.122-1.3 22.253-4.794 64.989-5.781 89.249-.985 24.253 8.199 79.752 10.152 100.077 1.957 20.318 1.515 19.195 2.47 24.398.95 5.208-.096 10.991 10.025 12.603 10.122 1.613 32.773 4.159 36.285 6.147 3.512 1.993.608 7.569-6.527 7.569-7.139 0-43.418 1.022-48.561-.302-5.144-1.323-9.447-2.052-14.072-28.982-4.627-26.934-15.5-62.061-18.918-83.179-3.422-21.117-6.688-76.03-7.155-89.495-.467-13.467-.552-21.258-.552-21.258Z" fill="#fff" stroke="#000" stroke-width="5" stroke-miterlimit="10"/><path d="M575.17 571.103c-.713-19.034-5.113-48.362 19.213-48.949 24.326-.586 24.718 9.869 23.421 32.122-1.3 22.253-4.794 64.989-5.781 89.249-.985 24.253 8.199 79.752 10.152 100.077 1.957 20.318 1.515 19.195 2.47 24.398.95 5.208-.096 10.991 10.025 12.603 10.122 1.613 32.773 4.159 36.285 6.147 3.512 1.993.608 7.569-6.527 7.569-7.139 0-43.418 1.022-48.561-.302-5.144-1.323-9.447-2.052-14.072-28.982-4.627-26.934-15.5-62.061-18.918-83.179-3.422-21.117-6.688-76.03-7.155-89.495-.467-13.467-.552-21.258-.552-21.258Z" stroke="#000" stroke-width="5" stroke-miterlimit="10"/><path d="M101.083 696.866c.21 8.437 3.977 20.591 8.633 26.115Z" fill="#fff"/><path d="M101.083 696.866c.21 8.437 3.977 20.591 8.633 26.115" stroke="#000" stroke-width="5" stroke-miterlimit="10"/><path d="M101.083 696.866c.21 8.437 3.977 20.591 8.633 26.115M623.426 516.734c-4.337 9.42-3.163 29.352 3.869 41.076" stroke="#000" stroke-width="5" stroke-miterlimit="10"/></g><defs><clipPath id="a"><path fill="#fff" d="M0 0h800v800H0z"/></clipPath></defs></svg>

<svg width="800" height="800" viewBox="0 0 800 800" fill="none" xmlns="http://www.w3.org/2000/svg">
<g clip-path="url(#clip0_298_12111)">
<path d="M456.925 588.584C454.751 572.843 454.113 558.11 454.113 558.11C454.113 558.11 480.473 553.123 497.3 545.97C514.129 538.816 540.915 525.679 565.218 518.492C589.53 511.307 607.603 516.568 638.236 517.53C668.868 518.492 691.729 512.241 696.222 509.699L682.937 541.113C682.937 541.113 663.942 540.635 646.477 546.662C629.012 552.689 602.237 576.687 593.934 590.97C585.636 605.253 582.702 612.476 572.45 616.094C562.193 619.716 552.017 612.275 538.152 611.4C524.289 610.529 476.065 619.478 465.086 624.466C465.085 624.464 461.105 618.816 456.925 588.584Z" fill="white" stroke="black" stroke-width="5" stroke-miterlimit="10"/>
<path d="M456.925 588.584C454.751 572.843 454.113 558.11 454.113 558.11C454.113 558.11 480.473 553.123 497.3 545.97C514.129 538.816 540.915 525.679 565.218 518.492C589.53 511.307 607.603 516.568 638.236 517.53C668.868 518.492 691.729 512.241 696.222 509.699L682.937 541.113C682.937 541.113 663.942 540.635 646.477 546.662C629.012 552.689 602.237 576.687 593.934 590.97C585.636 605.253 582.702 612.476 572.45 616.094C562.193 619.716 552.017 612.275 538.152 611.4C524.289 610.529 476.065 619.478 465.086 624.466C465.085 624.464 461.105 618.816 456.925 588.584Z" stroke="black" stroke-width="5" stroke-miterlimit="10"/>
<path d="M693.089 504.679C698.421 498.112 706.45 498.731 714.487 494.052C727.259 486.622 747.142 497.912 752.289 513.602C759.085 534.318 687.095 563.715 681.239 552.472C677.769 545.809 678.658 530.841 686.575 517.1C689.119 512.682 693.089 504.679 693.089 504.679Z" fill="white" stroke="black" stroke-width="5" stroke-miterlimit="10"/>
<path d="M693.089 504.679C698.421 498.112 706.45 498.731 714.487 494.052C727.259 486.622 747.142 497.912 752.289 513.602C759.085 534.318 687.095 563.715 681.239 552.472C677.769 545.809 678.658 530.841 686.575 517.1C689.119 512.682 693.089 504.679 693.089 504.679Z" stroke="black" stroke-width="5" stroke-miterlimit="10"/>
<path d="M747.172 525.395C734.371 530.111 707.726 529.776 705.647 512.198C703.31 492.439 695.456 503.947 692.629 506.676C689.805 509.406 686.839 520.618 685.181 519.206C683.518 517.793 682.992 489.475 700.358 479.865C717.718 470.259 729.008 470.983 738.368 478.275C747.732 485.568 756.433 504.915 754.289 516.682C752.146 528.449 747.172 525.395 747.172 525.395Z" fill="black" stroke="black" stroke-width="5" stroke-miterlimit="10"/>
<path d="M728.677 478.983C738.097 478.804 759.643 471.676 745.281 450.721C733.48 433.502 742.481 431.877 739.503 414.647C737.109 400.8 717.416 396.69 699.645 419.316C683.475 439.907 698.474 445.949 712.686 455.589C726.902 465.232 728.677 478.983 728.677 478.983Z" fill="black" stroke="black" stroke-width="5" stroke-miterlimit="10"/>
<path d="M454.114 558.109C454.589 573.006 459.173 614.662 465.086 624.464C465.086 624.464 404.913 652.657 366.718 661.977C328.521 671.304 234.005 697.098 192.656 704.52C151.313 711.945 85.8605 725.918 79.5108 736.666C73.1591 747.41 81.1798 777.706 86.1858 782.025C91.1929 786.339 95.4445 789.018 93.117 792.009C90.7885 794.997 71.3852 801.917 58.2062 766.973C45.0252 732.022 39.7967 732.632 49.079 721.408C58.3614 710.186 86.2728 706.142 144.973 675.83C203.674 645.511 273.143 634.83 309.526 607.737C345.911 580.631 339.998 581.399 356.265 571.637C372.531 561.873 396.147 556.112 413.56 557.273C430.971 558.436 437.78 560.401 445.262 559.377C452.745 558.353 454.114 558.109 454.114 558.109Z" fill="white" stroke="black" stroke-width="5" stroke-miterlimit="10"/>
<path d="M454.114 558.109C454.589 573.006 459.173 614.662 465.086 624.464C465.086 624.464 404.913 652.657 366.718 661.977C328.521 671.304 234.005 697.098 192.656 704.52C151.313 711.945 85.8605 725.918 79.5108 736.666C73.1591 747.41 81.1798 777.706 86.1858 782.025C91.1929 786.339 95.4445 789.018 93.117 792.009C90.7885 794.997 71.3852 801.917 58.2062 766.973C45.0252 732.022 39.7967 732.632 49.079 721.408C58.3614 710.186 86.2728 706.142 144.973 675.83C203.674 645.511 273.143 634.83 309.526 607.737C345.911 580.631 339.998 581.399 356.265 571.637C372.531 561.873 396.147 556.112 413.56 557.273C430.971 558.436 437.78 560.401 445.262 559.377C452.745 558.353 454.114 558.109 454.114 558.109Z" stroke="black" stroke-width="5" stroke-miterlimit="10"/>
<path d="M575.17 571.103C574.457 552.069 570.057 522.741 594.383 522.154C618.709 521.568 619.101 532.023 617.804 554.276C616.504 576.529 613.01 619.265 612.023 643.525C611.038 667.778 620.222 723.277 622.175 743.602C624.132 763.92 623.69 762.797 624.645 768C625.595 773.208 624.549 778.991 634.67 780.603C644.792 782.216 667.443 784.762 670.955 786.75C674.467 788.743 671.563 794.319 664.428 794.319C657.289 794.319 621.01 795.341 615.867 794.017C610.723 792.694 606.42 791.965 601.795 765.035C597.168 738.101 586.295 702.974 582.877 681.856C579.455 660.739 576.189 605.826 575.722 592.361C575.255 578.894 575.17 571.103 575.17 571.103Z" fill="white" stroke="black" stroke-width="5" stroke-miterlimit="10"/>
<path d="M575.17 571.103C574.457 552.069 570.057 522.741 594.383 522.154C618.709 521.568 619.101 532.023 617.804 554.276C616.504 576.529 613.01 619.265 612.023 643.525C611.038 667.778 620.222 723.277 622.175 743.602C624.132 763.92 623.69 762.797 624.645 768C625.595 773.208 624.549 778.991 634.67 780.603C644.792 782.216 667.443 784.762 670.955 786.75C674.467 788.743 671.563 794.319 664.428 794.319C657.289 794.319 621.01 795.341 615.867 794.017C610.723 792.694 606.42 791.965 601.795 765.035C597.168 738.101 586.295 702.974 582.877 681.856C579.455 660.739 576.189 605.826 575.722 592.361C575.255 578.894 575.17 571.103 575.17 571.103Z" stroke="black" stroke-width="5" stroke-miterlimit="10"/>
<path d="M101.083 696.866C101.293 705.303 105.06 717.457 109.716 722.981Z" fill="white"/>
<path d="M101.083 696.866C101.293 705.303 105.06 717.457 109.716 722.981" stroke="black" stroke-width="5" stroke-miterlimit="10"/>
<path d="M101.083 696.866C101.293 705.303 105.06 717.457 109.716 722.981" stroke="black" stroke-width="5" stroke-miterlimit="10"/>
<path d="M623.426 516.734C619.089 526.154 620.263 546.086 627.295 557.81" stroke="black" stroke-width="5" stroke-miterlimit="10"/>
</g>
<defs>
<clipPath id="clip0_298_12111">
<rect width="800" height="800" fill="white"/>
</clipPath>
</defs>
</svg>
